.local/share/icons/Gruvbox-Plus-Dark/mimetypes/scalable/comics-book-alt2.svg

<svg width="256" height="256" viewBox="0 0 256 256" fill="none" xmlns="http://www.w3.org/2000/svg">
<g opacity="0.4" filter="url(#filter0_f)">
<path d="M55.0839 15.5636H155.608L216.009 75.7129L216.011 224.609C216.011 233.52 208.749 240.737 199.838 240.737H55.0838C46.1734 240.737 39 233.564 39 224.654V31.6474C39 22.737 46.1734 15.5636 55.0838 15.5636H55.0839Z" fill="#282828"/>
</g>
<path d="M55.0839 15H155.608L216.009 75.1493L216.011 224.045C216.011 232.956 208.749 240.174 199.838 240.174H55.0838C46.1734 240.174 39 233 39 224.09V31.0838C39 22.1734 46.1734 15 55.0838 15H55.0839Z" fill="url(#paint0_linear)"/>
<path fill-rule="evenodd" clip-rule="evenodd" d="M155.608 20.3191H55.0839C49.1112 20.3191 44.3191 25.1111 44.3191 31.0838V224.09C44.3191 230.063 49.1111 234.855 55.0838 234.855H199.838C205.83 234.855 210.692 229.999 210.692 224.046V75.1493L155.608 20.3191ZM155.608 15H55.0839C46.1735 15 39 22.1734 39 31.0838V224.09C39 233 46.1734 240.174 55.0838 240.174H199.838C208.749 240.174 216.011 232.956 216.011 224.045L216.009 75.1493L155.608 15Z" fill="url(#paint1_linear)"/>
<path fill-rule="evenodd" clip-rule="evenodd" d="M82.9053 141.367C73.7941 142.574 69.0972 143.596 64.5262 148.607C57.8429 139.696 73.9943 109.621 95.715 97.3681C96.7152 103.704 101.26 105.099 110.752 106.836H117.436V101.824L120.221 105.722H135.815L138.6 101.824V106.836H145.283C154.775 105.099 158.763 103.147 159.763 96.8112C181.484 109.064 198.192 139.696 191.509 148.607C186.938 143.596 182.241 142.574 173.13 141.367L170.345 144.708L166.447 139.696H156.422L128.018 159.189C143.815 147.702 152.385 140.694 165.89 124.658C163.182 118.98 160.257 115.584 151.966 109.064C132.154 107.997 121.46 107.894 103.512 109.064C97.0501 114.823 93.8403 118.185 89.5887 124.658C101.865 138.859 110.227 146.433 128.017 159.188L99.6136 139.696H89.5887L85.6901 144.708L82.9053 141.367ZM128.017 159.188C128.017 159.189 128.018 159.189 128.018 159.189C128.018 159.189 128.018 159.189 128.018 159.189L128.018 159.189L128.017 159.188ZM130.872 120.168C145.979 120.168 155.308 125.563 157.048 131.342L161.191 126.642C157.116 121.072 153.76 118.177 146.989 114.947C138.506 110.979 131.881 111.395 121.25 112.063L121.243 112.063C120.905 112.084 120.565 112.106 120.221 112.127C118.213 112.252 110.021 114.076 113.433 117.488C116.328 120.383 121.909 120.294 127.744 120.201C128.783 120.185 129.831 120.168 130.872 120.168ZM141.68 111.379C141.68 111.379 149.791 110.491 151.166 112.197C152.397 113.724 151.09 114.441 150.365 114.146C145.144 112.023 141.68 111.379 141.68 111.379ZM162.809 124.31L162.148 125.32C161.328 124.295 160.542 123.378 159.803 122.516L159.803 122.516C157.592 119.937 155.799 117.847 154.768 114.807C158.069 118.073 159.888 119.99 162.809 124.31ZM93.174 124.31C96.5945 119.066 99.3347 116.405 104.765 111.675H106.61C99.9412 117.721 97.1737 121.468 97.3162 130.019C96.9146 130.597 95.6493 128.47 93.6235 125.065L93.6226 125.064C93.477 124.819 93.3274 124.568 93.174 124.31ZM139.713 141.332C140.674 142.042 141.454 142.968 140.21 144.43C139.816 144.893 138.615 145.933 134.161 146.868C123.231 149.164 113.032 146.101 104.069 136.145C104.069 136.145 112.802 138.749 118.271 139.174C122.79 139.524 125.938 139.424 128.476 139.344C128.743 139.335 129.007 139.326 129.269 139.317C133.202 139.182 136.646 139.064 139.713 141.332ZM135.449 149.93C129.4 150.504 126.038 150.471 120.081 149.93C122.433 151.874 123.957 153.075 125.832 154.552L125.832 154.552L125.84 154.559L125.844 154.562C126.502 155.081 127.204 155.634 128 156.265L135.449 149.93Z" fill="url(#paint2_linear)"/>
<path opacity="0.25" d="M155.608 17V61.2306C155.608 70.141 162.867 77.1605 171.777 77.1605L216.009 77.1493V75.1493L155.608 17Z" fill="#282828"/>
<path d="M155.608 15V59.2306C155.608 68.141 162.867 75.1605 171.777 75.1605L216.009 75.1493L155.608 15Z" fill="url(#paint3_linear)"/>
<defs>
<filter id="filter0_f" x="23.8778" y="0.441412" width="207.255" height="255.418" filterUnits="userSpaceOnUse" color-interpolation-filters="sRGB">
<feFlood flood-opacity="0" result="BackgroundImageFix"/>
<feBlend mode="normal" in="SourceGraphic" in2="BackgroundImageFix" result="shape"/>
<feGaussianBlur stdDeviation="7.5611" result="effect1_foregroundBlur"/>
</filter>
<linearGradient id="paint0_linear" x1="39" y1="15" x2="39" y2="240.174" gradientUnits="userSpaceOnUse">
<stop offset="1e-07" stop-color="#bdae93"/>
<stop offset="1" stop-color="#bdae93"/>
</linearGradient>
<linearGradient id="paint1_linear" x1="39" y1="15" x2="39" y2="240.174" gradientUnits="userSpaceOnUse">
<stop offset="1e-07" stop-color="#504945"/>
<stop offset="1" stop-color="#3c3836"/>
</linearGradient>
<linearGradient id="paint2_linear" x1="63" y1="96.8112" x2="63" y2="159.189" gradientUnits="userSpaceOnUse">
<stop offset="1e-07" stop-color="#fb4934"/>
<stop offset="1" stop-color="#cc241d"/>
</linearGradient>
<linearGradient id="paint3_linear" x1="155.608" y1="15" x2="155.608" y2="75.1605" gradientUnits="userSpaceOnUse">
<stop offset="1e-07" stop-color="#504945"/>
<stop offset="1" stop-color="#3c3836"/>
</linearGradient>
</defs>
</svg>

<svg width="256" height="256" fill="none" version="1.1" viewBox="0 0 256 256" xmlns="http://www.w3.org/2000/svg">
  <path d="m55.08 15h100.5l60.4 60.15 2e-3 148.9c0 8.911-7.262 16.13-16.17 16.13h-144.8c-8.91 0-16.08-7.174-16.08-16.08v-193c0-8.91 7.173-16.08 16.08-16.08h1e-4z" fill="url(#paint0_linear)"/>
  <path d="m155.6 20.32h-100.5c-5.973 0-10.76 4.792-10.76 10.76v193c0 5.973 4.792 10.76 10.76 10.76h144.8c5.992 0 10.85-4.856 10.85-10.81v-148.9l-55.08-54.83zm0-5.319h-100.5c-8.91 0-16.08 7.173-16.08 16.08v193c0 8.91 7.173 16.08 16.08 16.08h144.8c8.911 0 16.17-7.218 16.17-16.13l-2e-3 -148.9-60.4-60.15z" clip-rule="evenodd" fill="url(#paint1_linear)" fill-rule="evenodd"/>
  <path d="m82.91 141.4c-9.111 1.207-13.81 2.229-18.38 7.24-6.683-8.911 9.468-38.99 31.19-51.24 1 6.336 5.545 7.731 15.04 9.468h6.684v-5.012l2.785 3.898h15.59l2.785-3.898v5.012h6.683c9.492-1.737 13.48-3.689 14.48-10.02 21.72 12.25 38.43 42.88 31.75 51.8-4.571-5.011-9.268-6.033-18.38-7.24l-2.785 3.341-3.898-5.012h-10.02l-28.4 19.49c15.8-11.49 24.37-18.5 37.87-34.53-2.708-5.678-5.633-9.074-13.92-15.59-19.81-1.067-30.51-1.17-48.45 0-6.462 5.759-9.672 9.121-13.92 15.59 12.28 14.2 20.64 21.78 38.43 34.53l-28.4-19.49h-10.02l-3.899 5.012-2.785-3.341zm45.11 17.82c0 1e-3 1e-3 1e-3 1e-3 1e-3l-1e-3 -1e-3zm2.855-39.02c15.11 0 24.44 5.395 26.18 11.17l4.143-4.7c-4.075-5.57-7.431-8.465-14.2-11.7-8.483-3.968-15.11-3.552-25.74-2.884h-7e-3c-0.338 0.021-0.678 0.043-1.022 0.064-2.008 0.125-10.2 1.949-6.788 5.361 2.895 2.895 8.476 2.806 14.31 2.713 1.039-0.016 2.087-0.033 3.128-0.033zm10.81-8.789s8.111-0.888 9.486 0.818c1.231 1.527-0.076 2.244-0.801 1.949-5.221-2.123-8.685-2.767-8.685-2.767zm21.13 12.93-0.661 1.01c-0.82-1.025-1.606-1.942-2.345-2.804-2.211-2.579-4.004-4.669-5.035-7.709 3.301 3.266 5.12 5.183 8.041 9.503zm-69.64 0c3.42-5.244 6.161-7.905 11.59-12.64h1.845c-6.669 6.046-9.436 9.793-9.294 18.34-0.4016 0.578-1.667-1.549-3.693-4.954l-9e-4 -1e-3c-0.1456-0.245-0.2952-0.496-0.4486-0.754zm46.54 17.02c0.961 0.71 1.741 1.636 0.497 3.098-0.394 0.463-1.595 1.503-6.049 2.438-10.93 2.296-21.13-0.767-30.09-10.72 0 0 8.733 2.604 14.2 3.029 4.519 0.35 7.667 0.25 10.2 0.17 0.267-9e-3 0.531-0.018 0.793-0.027 3.933-0.135 7.377-0.253 10.44 2.015zm-4.264 8.598c-6.049 0.574-9.411 0.541-15.37 0 2.352 1.944 3.876 3.145 5.751 4.622l8e-3 7e-3 4e-3 3e-3c0.658 0.519 1.36 1.072 2.156 1.703l7.449-6.335z" clip-rule="evenodd" fill="url(#paint2_linear)" fill-rule="evenodd"/>
  <path d="m155.6 17v44.23c0 8.91 7.259 15.93 16.17 15.93l44.23-0.0112v-2l-60.4-58.15z" fill="#282828" opacity=".25"/>
  <path d="m155.6 15v44.23c0 8.91 7.259 15.93 16.17 15.93l44.23-0.0112-60.4-60.15z" fill="url(#paint3_linear)"/>
  <defs>
    <linearGradient id="paint0_linear" x1="39" x2="39" y1="15" y2="240.2" gradientUnits="userSpaceOnUse">
      <stop stop-color="#bdae93" offset="1e-7"/>
      <stop stop-color="#bdae93" offset="1"/>
    </linearGradient>
    <linearGradient id="paint1_linear" x1="39" x2="39" y1="15" y2="240.2" gradientUnits="userSpaceOnUse">
      <stop stop-color="#504945" offset="1e-7"/>
      <stop stop-color="#3c3836" offset="1"/>
    </linearGradient>
    <linearGradient id="paint2_linear" x1="63" x2="63" y1="96.81" y2="159.2" gradientUnits="userSpaceOnUse">
      <stop stop-color="#fb4934" offset="1e-7"/>
      <stop stop-color="#cc241d" offset="1"/>
    </linearGradient>
    <linearGradient id="paint3_linear" x1="155.6" x2="155.6" y1="15" y2="75.16" gradientUnits="userSpaceOnUse">
      <stop stop-color="#504945" offset="1e-7"/>
      <stop stop-color="#3c3836" offset="1"/>
    </linearGradient>
  </defs>
</svg>
